X:7138391
T:Southwind
C:Traditional
H:This is a fairly sandard New England version of the tune. I also include
H:a transcription of a very nice version played by Randy Miller.
N:From the Lamprey River Band Tunebook, on NH Country Dance (URL below), along with many New England,
N:Canadian & Swedish tunes, and resources for abc notation and New England traditional music and dance.
%
N: Note #1: To preserve formatting (font, spacing, etc.), use the
N: file header at the URL below; just follow accompanying instructions.
%
N: Note #2: This abc code is optimized for use with abcm2ps, which is used by
N: EasyABC and other abc apps. To use abc2svg for display or printing look to see if there
N: is a file optimized for abc2svg. If not you may need to adjust the spacing in places.
%
Z:abc-transcription Peter Yarensky. I rely heavily on careful listening to the
Z:named sources aided by software to hear details. While not perfect, known
Z:substantial differences from other written sources receive careful attention.
Z:abc-copyright Peter Yarensky. You may reproduce this tune freely but
Z:please include the entire abc file including all the notes.
%%writefields HQSD
F:Tunes Home Page - https://fiddle-tunes.nhcountrydance.com/
F:abc Header & its Usage - https://fiddle-tunes.nhcountrydance.com/header-page/
M:3/4
L:1/4
R:Waltz
G:Couples Dances ~ Waltzes
N: Tune Tags ~ Waltz, New England Repertoire, Traditional
K:G
d c |\
"G" B>A G | "G" B c d | "D7" A>B A | "D7" A2 d/c/ | "G" B>A G | "C" E D E | "G" G3 | "G" G :|
B d |\
"G" g>a g | "C" g f e | "G" d>e d | "G" d2 c | "G" B>A G | "G" B c d | "D7" A3 | "D7" A B d |
"C" g>a g | "C" g f e | "G" d>e d | "G" d2 c | "G" B>A G | "C" A<c "D7" F | "G" G3 | "G" G |]

